X: 2
T: The Banks Of Lough Gowna
R: jig
M: 6/8
L: 1/8
K: Amin
~A3 AGE | EDE ~G3 |~A3 AGE | c2d edc | ~A3 AGE | EDE GAB | cde ged | cAA A3 :|
:cde ~g3 | gea ged | cde ~g3 | geg ~a3 | cde ~g3 | gea ged | cde ged | cAA A3 :||


Tune 775	Setting 25886

